X: 13
M: C
L: 1/8
K: D
uB2 |\
vA2uFvA- AuDFA | vB2uGvB- BuDGB | A2FA- ADFA | (vEF)uGA (uGF)vED |
vf2udvf- fufd(uf | ge)af gfeg | f2df- fAdf | e2ce- eAce |
f2df- ffd(uf | ge)af gfe(uc | AB)c(ud ef)gue | vf2[d2D2] [d2D2] :|
eed on a broo an gaein a lunk as dey go alang, dat's da kind
o' syncopated rhythm du haes to get whin du plays dis een.


